X:1
T:Psalm 34b
C:In weelde en ongeluk, ...(9) - 2. Tweede wysie
C:Ik loof den HEER, mijn God - AC van Velden 1919
L:1/4
M:C
K:G
Q:1/2=60
yy G | B A G F | G3
yyyy G | (E/F/) G A B | c B A 
yyyy A | B3/2 F/ G E | A3/2 E/ F
yyyy D | d ( G/A/) B A  | G3
yyyy B | A D G G | (F G A)
yyyy D | G F E E | A G F
yyyy F | B A G G | c B A
yyyy D | d (G/A/) B A | G3 |]
